!!!!SEGMENT: pl-kk--kk-i-130--003_gorczycki-grzegorz-gerwazy--benedicta-et-venerabilis.krn
!!!cenid: 16xx:735
!!!COM: Gorczycki, Grzegorz Gerwazy
!!!COM-rismid: pe30009207
!!!CDT: ~1666-1734/04/30
!!!CNT: Polish
!!!OTL: Benedicta et venerabilis
!!!PDT:
!!!AGN: Sacred
!!!SMS-siglum: PL-Kk
!!!SMS-shelfmark: Kk.I.130
!!!SMS-shelfwork: 003 W
!!!SMS-variant:
!!!SMS-altvar:
!!!NIFC-rismid: 1001145218
!!!URL-scan: http://repozytorium.nifc.pl/skany/pl-kk-nut--i-130
!!!ONB-nifc: UWAGA: utwory w zbiorze: 1. Beata es virgo Maria, 2. Felix es sacra virgo Maria, 3. Benedicta et venerabilis
**kern	**text	**kern	**text	**kern	**text	**kern	**text
*part4	*part4	*part3	*part3	*part2	*part2	*part1	*part1
*staff4	*staff4	*staff3	*staff3	*staff2	*staff2	*staff1	*staff1
*Ibass	*	*Itenor	*	*Ialto	*	*Isoprn	*
*I"Basso	*	*I"Tenore	*	*I"Alto	*	*I"Canto	*
*I'B.	*	*I'T.	*	*I'A.	*	*I'C.	*
*clefF4	*	*clefC4	*	*clefC3	*	*clefC1	*
*k[<b-]	*	*k[<b-]	*	*k[<b-]	*	*k[<b-]	*
*g:	*	*g:	*	*g:	*	*g:	*
*M2/1	*	*M2/1	*	*M2/1	*	*M2/1	*
*met(C|)	*	*met(C|)	*	*met(C|)	*	*met(C|)	*
=1	=1	=1	=1	=1	=1	=1	=1
!	!	!	!	!LO:TX:t=P:problem:kreska pseudotaktowa	!	!LO:TX:t=P:problem:kreska pseudotaktowa	!
!LO:TX:a:t=a' Capella	!	!LO:TX:a:t=a' Capella	!	!LO:TX:a:t=a' Capella	!	!LO:TX:a:t=a' Capella	!
2r	.	1G/	Be-	0r	.	0r	.
1G\	Be-	.	.	.	.	.	.
.	.	1A\	-ne-	.	.	.	.
*2\right	*	*	*	*	*	*	*
!LO:TX:t=P:problem:kreska pseudotaktowa	!	!	!	!	!	!	!
2F#X\	-ne-	.	.	.	.	.	.
=2	=2	=2	=2	=2	=2	=2	=2
2.G\	-di-	1B-\	-di-	1d\	Bene-	2r	.
.	.	.	.	.	.	1dd\	Be-
!LO:TX:t=P:problem:kreska pseudotaktowa	!	!	!	!	!	!	!
4F\	.	.	.	.	.	.	.
*lig	*	*	*	*	*	*	*
!	!	!LO:TX:t=P:problem:kreska pseudotaktowa	!	!LO:TX:t=P:problem:kreska pseudotaktowa	!	!	!
1En\	.	1G/	-cta	1en\	-di-	.	.
*	*	*	*	*	*	*2\right	*
!	!	!	!	!	!	!LO:TX:t=P:problem:kreska pseudotaktowa	!
.	.	.	.	.	.	2cc#X\	-ne-
=3	=3	=3	=3	=3	=3	=3	=3
1D\	.	1d\	et	1f\	-cta	2.dd\	-di-
.	.	.	.	.	.	4cc\	.
*Xlig	*	*2\right	*	*	*	*	*
!LO:TX:t=P:problem:kreska pseudotaktowa	!	!	!	!LO:TX:t=P:problem:kreska pseudotaktowa	!	!	!
1GG/,<	-cta.	2d\	Ve-	1d\	.	2b-X\	.
!	!	!LO:TX:t=P:problem:kreska pseudotaktowa	!	!	!	!LO:TX:t=P:problem:kreska pseudotaktowa	!
.	.	2d\	-ne-	.	.	2g\	-cta
=4	=4	=4	=4	=4	=4	=4	=4
00r	.	2.B-\	-ra-	1g\	et	1r	.
.	.	4A/	-bi-	.	.	.	.
*	*	*	*	*2\right	*	*	*
.	.	2G,</	-lis	2g\	Ve-	1g\	Be-
!	!	!LO:TX:t=P:problem:kreska pseudotaktowa	!	!LO:TX:t=P:problem:kreska pseudotaktowa	!	!	!
.	.	2e-X\	es	2g\	-ne-	.	.
=5	=5	=5	=5	=5	=5	=5	=5
.	.	2.d\	Vir-	2.f\	-ra-	1a\	-ne-
.	.	4c\	.	4e\	-bi-	.	.
.	.	2B-,\	-go	2d,<\	-lis	1b-\	-di-
!	!	!	!	!LO:TX:t=P:problem:kreska pseudotaktowa	!	!	!
.	.	2B-\	Ma-	2d\	es	.	.
=6	=6	=6	=6	=6	=6	=6	=6
!LO:TX:t=P:problem:kreska pseudotaktowa	!	!	!	!	!	!	!
*	*	*lig	*	*	*	*	*
!	!	!	!	!	!	!LO:TX:t=P:problem:kreska pseudotaktowa	!
1r	.	1c\	-ri-	4e\	Vir-	1g\,<	-cta
.	.	.	.	4f\	.	.	.
.	.	.	.	1g\	-go	.	.
*	*	*	*	*	*	*	*ij
1D\	Be-	1d\	.	.	.	2.dd\	Be-
.	.	.	.	2f#X\	Ma-	.	.
.	.	.	.	.	.	4dd\	-ne-
!	!	!	!	!LO:TX:t=P:problem:kreska pseudotaktowa	!	!	!
*	*	*Xlig	*	*	*	*	*
=7	=7	=7	=7	=7	=7	=7	=7
!LO:TX:t=P:problem:kreska pseudotaktowa	!	!LO:TX:t=P:problem:kreska pseudotaktowa	!	!	!	!	!
1En\	-ne-	1G/,<	-a	1g\	-ri-	(2dd\	-di-
!	!	!	!	!	!	!LO:TX:t=P:problem:kreska pseudotaktowa	!
.	.	.	.	.	.	2cc\)	.
!	!	!LO:TX:t=P:problem:kreska pseudotaktowa	!	!	!	!	!
1F\	-di-	1r	.	2.a,<\	-a	2dd,<\	-cta
*	*	*	*	*	*	*	*Xij
!	!	!	!	!	!	!LO:TX:t=P:problem:kreska pseudotaktowa	!
.	.	.	.	.	.	2dd\	et
*	*	*	*	*	*ij	*	*
.	.	.	.	4g\	Ma-	.	.
=8	=8	=8	=8	=8	=8	=8	=8
!LO:TX:t=P:problem:kreska pseudotaktowa	!	!	!	!	!	!	!
1D\,<	-cta	1d\	et	(2.fn\	-ri-	2dd\	Ve-
!	!	!	!	!	!	!LO:TX:t=P:problem:kreska pseudotaktowa	!
.	.	.	.	.	.	2dd\	-ne-
.	.	.	.	4e\)	.	.	.
!	!	!	!	!	!	!LO:LB:g=original	!
!LO:TX:t=P:problem:kreska pseudotaktowa	!	!	!	!LO:TX:t=P:problem:kreska pseudotaktowa	!	!	!
1G\	et	2d\	ve-	1d\,<	-a	2.b-\	-ra-
*	*	*	*	*	*Xij	*	*
!	!	!LO:TX:t=P:problem:kreska pseudotaktowa	!	!	!	!	!
.	.	2d\	-ne-	.	.	.	.
!	!	!	!	!	!	!LO:TX:t=P:problem:kreska pseudotaktowa	!
.	.	.	.	.	.	4a\	-bi-
!	!	!LO:LB:g=original	!	!	!	!	!
=9	=9	=9	=9	=9	=9	=9	=9
!	!	!	!	!LO:TX:t=P:problem:kreska pseudotaktowa	!	!	!
!	!	!	!	!LO:TX:a:t=1.	!	!	!
2G\	Ve-	2.B-\	-ra-	1r	.	2g,</	-lis
!LO:TX:t=P:problem:kreska pseudotaktowa	!	!	!	!	!	!	!
2G\	-ne-	.	.	.	.	2g/	es
.	.	4B-\	-bi-	.	.	.	.
!LO:LB:g=original	!	!	!	!LO:LB:g=original	!	!	!
!	!	!	!	!	!	!LO:TX:t=P:problem:kreska pseudotaktowa	!
2.Fn\	-ra-	2A,/	-lis	1fn\	et	1a\	Vir-
!	!	!LO:TX:t=P:problem:kreska pseudotaktowa	!	!	!	!	!
.	.	2A/	es	.	.	.	.
!LO:TX:t=P:problem:kreska pseudotaktowa	!	!	!	!	!	!	!
4E\	-bi-	.	.	.	.	.	.
=10	=10	=10	=10	=10	=10	=10	=10
2D,/	-lis	2d\	Vir-	2f\	Ve-	2b-,<\	-go
!LO:TX:t=P:problem:kreska pseudotaktowa	!	!	!	!LO:TX:t=P:problem:kreska pseudotaktowa	!	!	!
2D/	es	1d\	-go	2f\	-ne-	2b-\	Ma-
1E-X\	Vir-	.	.	2.g\	-ra-	(2g\	-ri-
!	!	!LO:TX:t=P:problem:kreska pseudotaktowa	!	!	!	!LO:TX:t=P:problem:kreska pseudotaktowa	!
.	.	2c\	Ma-	.	.	2cc\)	.
.	.	.	.	4g\	-bi-	.	.
=11	=11	=11	=11	=11	=11	=11	=11
2D,</	-go	1d\	-ri-	2f#X,\	-lis	2a,<\	-a
*lig	*	*	*	*	*	*	*
1BB-/	Ma-	.	.	1d\	Vir-	2.b-\	[<[<Vir]]-
.	.	2G,</	-a	.	.	.	.
.	.	.	.	.	.	4a\	.
!	!	!	!	!	!	!LO:TX:t=P:problem:kreska pseudotaktowa	!
1C/	.	2G/	Vir-	1e,<\	-go	2g/	-go
*Xlig	*	*	*	*	*	*	*
=12	=12	=12	=12	=12	=12	=12	=12
!	!	!LO:TX:t=P:problem:kreska pseudotaktowa	!	!	!	!	!
.	.	[<1A\	-go	.	.	2.cc\	Ma-
*	*	*	*	*lig	*	*	*
1D\	-ri-	.	.	1f#X\	Ma-	.	.
.	.	.	.	.	.	4b-\	-ri-
.	.	2A,/]	.	.	.	(2a\	.
!LO:TX:t=P:problem:kreska pseudotaktowa	!	!	!	!	!	!LO:TX:t=P:problem:kreska pseudotaktowa	!
2C/	.	2e-X\	Ma-	1g\	.	2cc\)	.
*	*	*	*	*Xlig	*	*	*
=13	=13	=13	=13	=13	=13	=13	=13
!LO:TX:t=P:problem:kreska pseudotaktowa	!	!	!	!	!	!	!
1D\	.	1d\	-ri-	.	.	1a\	.
.	.	.	.	2f#X\	-ri-	.	.
!LO:TX:t=P:problem:kreska pseudotaktowa	!	!LO:TX:t=P:problem:kreska pseudotaktowa	!	!LO:TX:t=P:problem:kreska pseudotaktowa	!	!	!
1GG/,<	-a.	1d\	-a	1g\	-a	2b-,<\	-a
!	!	!	!	!	!	!LO:TX:t=P:problem:kreska pseudotaktowa	!
.	.	.	.	.	.	2g/	qu(ae)
=14	=14	=14	=14	=14	=14	=14	=14
2r	.	0r	.	1r	.	2g/	si-
!LO:TX:t=P:problem:kreska pseudotaktowa	!	!	!	!	!	!	!
2G\	Qu(ae)	.	.	.	.	2g/	-ne
!	!	!	!	!	!	!LO:TX:t=P:problem:kreska pseudotaktowa	!
2G\	si-	.	.	2r	.	1b-\	ta-
!LO:TX:t=P:problem:kreska pseudotaktowa	!	!	!	!LO:TX:t=P:problem:kreska pseudotaktowa	!	!	!
2G\	-ne	.	.	2d\	Qu(ae)	.	.
=15	=15	=15	=15	=15	=15	=15	=15
!LO:TX:t=P:problem:kreska pseudotaktowa	!	!	!	!	!	!	!
1B-\	tac-	2r	.	2d\	si-	(4b-\	-ctu
.	.	.	.	.	.	4a\)	.
!	!	!LO:TX:t=P:problem:kreska pseudotaktowa	!	!	!	!	!
.	.	2d\	qu(ae)	2d\	-ne	(4b-\	pu-
!	!	!	!	!	!	!LO:TX:t=P:problem:kreska pseudotaktowa	!
.	.	.	.	.	.	4cc\)	.
!	!	!	!	!	!	!LO:LB:g=original	!
2B-,\	-tu	2d\	si-	1f\	ta-	1dd\	-do-
!LO:TX:t=P:problem:kreska pseudotaktowa	!	!LO:TX:t=P:problem:kreska pseudotaktowa	!	!	!	!	!
2B-\	Pu-	2d\	-ne	.	.	.	.
=16	=16	=16	=16	=16	=16	=16	=16
!	!	!	!	!LO:TX:t=P:problem:kreska pseudotaktowa	!	!	!
(4A\	-do-	1f\	ta-	1c\	-ctu	2cc,\	-ris
4G\	.	.	.	.	.	.	.
4A\	.	.	.	.	.	1cc\	qu(ae)
!LO:TX:t=P:problem:kreska pseudotaktowa	!	!	!	!	!	!	!
!LO:TX:a:t=P:problem:custos c	!	!	!	!	!	!	!
4B-\)	.	.	.	.	.	.	.
!LO:LB:g=original	!	!	!	!	!	!	!
1c\	.	(4en\	-ctu	2r	.	.	.
.	.	4d\)	.	.	.	.	.
!	!	!	!	!	!	!LO:TX:t=P:problem:kreska pseudotaktowa	!
.	.	(4e\	pu-	2g\	qu(ae)	2cc\	si-
!	!	!LO:TX:t=P:problem:kreska pseudotaktowa	!	!	!	!	!
.	.	4f\)	.	.	.	.	.
=17	=17	=17	=17	=17	=17	=17	=17
2.B-X\	.	2g\	-do-	2g\	si-	2.dd\	-ne
!	!	!	!	!LO:TX:t=P:problem:kreska pseudotaktowa	!	!	!
.	.	1d\	.	2g\	-ne	.	.
!LO:TX:t=P:problem:kreska pseudotaktowa	!	!	!	!	!	!	!
4A\	.	.	.	.	.	4cc\	.
*lig	*	*	*	*	*	*	*
!	!	!	!	!LO:TX:t=P:problem:kreska pseudotaktowa	!	!	!
1G\	.	.	.	1b-\	ta-	2b-,\	.
!	!	!LO:TX:t=P:problem:kreska pseudotaktowa	!	!	!	!LO:TX:t=P:problem:kreska pseudotaktowa	!
.	.	[<2en\	.	.	.	2g/	ta-
!	!	!	!	!LO:SIC:o:t:v=kasownik an	!	!	!
!	!	!LO:LB:g=original	!	!LO:LB:g=original	!	!	!
=18	=18	=18	=18	=18	=18	=18	=18
!LO:TX:t=P:problem:kreska pseudotaktowa	!	!	!	!LO:TX:t=P:problem:powtórzona sylaba ta	!	!	!
1A\	.	2e\]	.	2a\	ta-	1cc\,	-ctu
.	.	2c#X\	.	1g\	-ctus	.	.
!	!	!LO:SIC:o:s:v=2cn	!	!	!	!	!
!	!	!LO:TX:t=P:problem:kreska pseudotaktowa	!	!	!	!	!
*Xlig	*	*	*	*	*	*	*
*lig	*	*	*	*	*	*	*
1B-X\	.	1.d\	.	.	.	(2b-\	pu-
!	!	!	!	!	!	!LO:TX:t=P:problem:kreska pseudotaktowa	!
.	.	.	.	1fn\	pu-	2dd\)	.
=19	=19	=19	=19	=19	=19	=19	=19
!LO:TX:t=P:problem:kreska pseudotaktowa	!	!	!	!	!	!	!
1A\	.	.	.	.	.	1a\	-do-
.	.	2c#X\	.	2e\	-do-	.	.
!	!	!LO:TX:t=P:problem:kreska pseudotaktowa	!	!LO:TX:t=P:problem:kreska pseudotaktowa	!	!	!
*Xlig	*	*	*	*	*	*	*
2D,</	-ris	2d,\	-ris	2d,<\	-ris	2a,<\	-ris
!LO:TX:t=P:problem:kreska pseudotaktowa	!	!	!	!	!	!LO:TX:t=P:problem:kreska pseudotaktowa	!
2D/	in-	2d\	In-	2f#X\	in-	2a\	in-
=20	=20	=20	=20	=20	=20	=20	=20
2G\	-ven-	2d\	-ven-	2g\	-ven-	2b-\	-ven-
!LO:TX:t=P:problem:kreska pseudotaktowa	!	!LO:TX:t=P:problem:kreska pseudotaktowa	!	!LO:TX:t=P:problem:kreska pseudotaktowa	!	!LO:TX:t=P:problem:kreska pseudotaktowa	!
2E-X\	-ta	2cn\	-ta	2g\	-ta	2g/	-ta
!LO:TX:t=P:problem:kreska pseudotaktowa	!	!	!	!	!	!	!
2D/	es.	2d,\	es	2f#X,\	es	2dd,<\	es
!LO:TX:t=P:problem:kreska pseudotaktowa	!	!	!	!	!	!LO:TX:t=P:problem:kreska pseudotaktowa	!
*	*	*	*ij	*	*	*	*
2r	.	2G/	In-	1g\	Ma-	2b-\	in-
=21	=21	=21	=21	=21	=21	=21	=21
!LO:TX:t=P:problem:kreska pseudotaktowa	!	!	!	!	!	!	!
1r	.	2c\	-ven-	.	.	2cc\	-ven-
!	!	!LO:TX:t=P:problem:kreska pseudotaktowa	!	!	!	!LO:TX:t=P:problem:kreska pseudotaktowa	!
.	.	2A\	-ta	2f#X\	-ter	2cc\	-ta
!	!	!	!	!LO:TX:t=P:problem:kreska pseudotaktowa	!	!	!
1G\	Ma-	2G,/	es	1g\	.	2b-\	es
*	*	*	*Xij	*	*	*	*
!	!	!	!	!	!	!LO:TX:t=P:problem:kreska pseudotaktowa	!
.	.	1d\	Ma-	.	.	2r	.
!	!	!	!	!	!	!LO:LB:g=original	!
=22	=22	=22	=22	=22	=22	=22	=22
!	!	!	!	!LO:TX:t=P:problem:kreska pseudotaktowa	!	!	!
2F#X\	-ter	.	.	1r	.	1dd\	Ma-
1G\	Sal-	1B-\	-ter	.	.	.	.
.	.	.	.	1g\	Ma-	2dd,\	-ter
!	!	!LO:TX:t=P:problem:kreska pseudotaktowa	!	!	!	!	!
1E-X\	-va-	[<2c\	Sa-	.	.	1cc\	.
=23	=23	=23	=23	=23	=23	=23	=23
.	.	2c\]	.	2g\	-ter	.	.
!	!	!	!	!	!	!LO:TX:t=P:problem:kreska pseudotaktowa	!
1F\	-to-	1A\	-ba-	1fn\	Sal-	2cc\	Sal-
.	.	.	.	.	.	2cc\	-va-
!LO:TX:t=P:problem:kreska pseudotaktowa	!	!	!	!LO:TX:t=P:problem:kreska pseudotaktowa	!	!	!
!LO:TX:a:t=P:problem:custos BB-	!	!	!	!	!	!	!
2D/	.	1B-X\	-to-	2f\	-va-	[<2b-\	-to-
!LO:LB:g=original	!	!	!	!	!	!	!
=24	=24	=24	=24	=24	=24	=24	=24
2BB-/	.	.	.	2f\	-to-	1.b-\]	.
1E-X\	.	1G/	.	1e-X\,	-ris	.	.
!LO:TX:t=P:problem:kreska pseudotaktowa	!	!	!	!LO:TX:t=P:problem:kreska pseudotaktowa	!	!	!
2C/	.	1A\	.	2e-\	Sal-	4a\	.
!	!	!	!	!	!	!LO:TX:t=P:problem:kreska pseudotaktowa	!
.	.	.	.	.	.	4g\	.
=25	=25	=25	=25	=25	=25	=25	=25
0D\	.	.	.	4d/	-va-	2f#X/	.
.	.	.	.	4c/	.	.	.
!	!	!LO:TX:t=P:problem:kreska pseudotaktowa	!	!	!	!	!
.	.	2B-\	.	4B-/	.	1g\	.
.	.	.	.	4c/	.	.	.
.	.	1A\	.	1d\	to-	.	.
.	.	.	.	.	.	2f#X/	.
=26	=26	=26	=26	=26	=26	=26	=26
00GG/;	-ris.	00Bn\;	-ris.	00d\;	-ris	00g\;	-ris.
!	!	!LO:LB:g=original	!	!LO:LB:g=original	!	!	!
=27||	=27||	=27||	=27||	=27||	=27||	=27||	=27||
*M2/1	*	*M2/1	*	*M2/1	*	*M2/1	*
*met(C|)	*	*met(C|)	*	*met(C|)	*	*met(C|)	*
*k[b-b-]	*	*	*	*	*	*	*
!LO:TX:t=P:problem:kreska pseudotaktowa	!	!LO:TX:t=P:problem:kreska pseudotaktowa	!	!	!	!	!
1D\	Vir-	0r	.	00r	.	00r	.
!LO:TX:t=P:problem:kreska pseudotaktowa	!	!	!	!	!	!	!
1D\	-go	.	.	.	.	.	.
=28	=28	=28	=28	=28	=28	=28	=28
!	!	!	!	!LO:TX:t=P:problem:kreska pseudotaktowa	!	!	!
2.G\	De-	1G/	Vir-	.	.	.	.
!LO:TX:t=P:problem:kreska pseudotaktowa	!	!	!	!	!	!	!
4F\	.	.	.	.	.	.	.
!	!	!LO:TX:t=P:problem:kreska pseudotaktowa	!	!	!	!	!
2E-X\	.	1G/	-go	.	.	.	.
!LO:TX:t=P:problem:kreska pseudotaktowa	!	!	!	!	!	!	!
2C/	-i	.	.	.	.	.	.
=29	=29	=29	=29	=29	=29	=29	=29
2.D\	Ge-	2.d\	De-	1d\	Vir-	0r	.
!LO:TX:t=P:problem:kreska pseudotaktowa	!	!	!	!	!	!	!
4D\	-ni-	4c\	.	.	.	.	.
!	!	!	!	!LO:TX:t=P:problem:kreska pseudotaktowa	!	!	!
2GG,</	-trix	4B-\	.	1d\	-go	.	.
.	.	4c\	.	.	.	.	.
!LO:TX:t=P:problem:kreska pseudotaktowa	!	!	!	!	!	!	!
!LO:TX:a:t=P:problem:custos E-	!	!	!	!	!	!	!
2G\	Quem	4B-\	.	.	.	.	.
!	!	!LO:TX:t=P:problem:kreska pseudotaktowa	!	!	!	!	!
.	.	4A\	.	.	.	.	.
!LO:LB:g=original	!	!	!	!	!	!	!
=30	=30	=30	=30	=30	=30	=30	=30
2.E-X\	to-	4G/	.	2.g\	De-	1g\	Vir-
.	.	4A/	.	.	.	.	.
.	.	4B-/	.	.	.	.	.
!LO:TX:t=P:problem:kreska pseudotaktowa	!	!	!	!	!	!	!
4D/	.	4G/	.	4f\	.	.	.
!	!	!	!	!	!	!LO:TX:t=P:problem:kreska pseudotaktowa	!
4C,/	.	2c\	.	2e-X\	.	1g\	-go
4D/	.	.	.	.	.	.	.
!	!	!LO:TX:t=P:problem:kreska pseudotaktowa	!	!LO:TX:t=P:problem:kreska pseudotaktowa	!	!	!
4E-X/	.	2c\	-i	2c,</	-i	.	.
!LO:TX:t=P:problem:kreska pseudotaktowa	!	!	!	!	!	!	!
4C/	.	.	.	.	.	.	.
=31	=31	=31	=31	=31	=31	=31	=31
4D\	.	2.B-X\	Ge-	2f\	Ge-	2.dd\	De-
4E\	.	.	.	.	.	.	.
4F\	.	.	.	2d\	-ni-	.	.
!LO:TX:t=P:problem:kreska pseudotaktowa	!	!	!	!	!	!	!
4D\	.	4A/	-ni-	.	.	4cc\	.
4E-X\	.	2G,</	-trix	2.g\	.	2b-\	.
4F\	.	.	.	.	.	.	.
!	!	!	!	!	!	!LO:TX:t=P:problem:kreska pseudotaktowa	!
4G\	.	4e-X\	De-	.	.	2g,</	-i
!LO:TX:t=P:problem:kreska pseudotaktowa	!	!LO:TX:t=P:problem:kreska pseudotaktowa	!	!	!	!	!
4E-\	.	4d\	.	4g\	-trix	.	.
=32	=32	=32	=32	=32	=32	=32	=32
!LO:TX:t=P:problem:kreska pseudotaktowa	!	!	!	!LO:TX:t=P:problem:kreska pseudotaktowa	!	!	!
0F\	.	2c\	.	1f\,<	.	2a\	Ge-
!	!	!LO:TX:t=P:problem:kreska pseudotaktowa	!	!	!	!	!
.	.	2d\	-i	.	.	1b-\	.
.	.	2.c\	Ge-	2r	.	.	.
!	!	!	!	!	!	!LO:TX:t=P:problem:kreska pseudotaktowa	!
.	.	.	.	2f\	quem	2a\	-ni-
.	.	4c\	-ni-	.	.	.	.
!	!	!	!	!	!	!LO:LB:g=original	!
=33	=33	=33	=33	=33	=33	=33	=33
!	!	!LO:TX:t=P:problem:kreska pseudotaktowa	!	!	!	!	!
2BB-,</	-tua	1d\	-trix	4f\	to-	2b-,\	-trix
!	!	!	!	!LO:TX:a:t=P:problem:♭ above	!	!	!
.	.	.	.	4e-\	.	.	.
!LO:TX:t=P:problem:kreska pseudotaktowa	!	!	!	!	!	!	!
2B-\	non	.	.	4d\	.	2ff\	quem
.	.	.	.	4c\	.	.	.
!LO:TX:t=P:problem:kreska pseudotaktowa	!	!	!	!	!	!	!
1B-\	Ca-	2r	.	2B-,</	-tus	4ff\	.
.	.	.	.	.	.	4ee-X\	to-
!	!	!LO:TX:t=P:problem:kreska pseudotaktowa	!	!LO:TX:t=P:problem:kreska pseudotaktowa	!	!	!
.	.	2d\	quem	2b-\	non	4dd\	.
!	!	!	!	!	!	!LO:TX:t=P:problem:kreska pseudotaktowa	!
.	.	.	.	.	.	4cc\	.
=34	=34	=34	=34	=34	=34	=34	=34
2E-X,<\	-pit	2.B-\	.	1b-\	ca-	2b-,\	-tus
!LO:TX:t=P:problem:kreska pseudotaktowa	!	!	!	!	!	!	!
2G\	quem	.	.	.	.	2b-\	non
!	!	!LO:TX:t=P:problem:kreska pseudotaktowa	!	!	!	!	!
.	.	4A/	to-	.	.	.	.
!	!	!LO:LB:g=original	!	!	!	!	!
!LO:TX:t=P:problem:kreska pseudotaktowa	!	!	!	!	!	!LO:TX:t=P:problem:kreska pseudotaktowa	!
1G\	to-	2G,</	-tus	2g,\	-pit	1b-\	ca-
!	!	!	!	!LO:TX:t=P:problem:kreska pseudotaktowa	!	!	!
.	.	2g\	non	2g\	non	.	.
=35	=35	=35	=35	=35	=35	=35	=35
2C,</	-t(us)	1g\	ca-	4g\	.	2g,</	-pit
.	.	.	.	4f\	.	.	.
2c\	non	.	.	4e-X\	.	2ee-X\	non
.	.	.	.	4d\	.	.	.
1c\	ca-	2c,<\	-pit	4c/	Ca-	2.ee-\	Ca-
.	.	.	.	4d/	.	.	.
!	!	!LO:TX:t=P:problem:kreska pseudotaktowa	!	!	!	!	!
.	.	2c\	non	4e-X/	.	.	.
!	!	!	!	!LO:TX:t=P:problem:kreska pseudotaktowa	!	!	!
.	.	.	.	4c/	.	4dd\	.
!	!	!	!	!LO:LB:g=original	!	!	!
=36	=36	=36	=36	=36	=36	=36	=36
!LO:TX:t=P:problem:kreska pseudotaktowa	!	!	!	!	!	!	!
!LO:TX:a:t=P:problem:custos G	!	!	!	!	!	!	!
1F\,<	-pit	2.c\	ca-	2.f\	.	4cc\	-pit
.	.	.	.	.	.	4cc,\	.
.	.	.	.	.	.	1cc\	or-
!	!	!	!	!LO:TX:t=P:problem:kreska pseudotaktowa	!	!	!
.	.	4c\	-pit	4e-X,<\	-pit	.	.
!LO:LB:g=original	!	!	!	!	!	!	!
!LO:TX:t=P:problem:kreska pseudotaktowa	!	!	!	!	!	!	!
1G\	or-	1G/	or-	1d\	or-	.	.
!	!	!	!	!	!	!LO:TX:t=P:problem:kreska pseudotaktowa	!
.	.	.	.	.	.	2bn\	.
=37	=37	=37	=37	=37	=37	=37	=37
!	!	!	!	!LO:TX:t=P:problem:kreska pseudotaktowa	!	!	!
1C/	-bis	2G,</	-bis	1e-X\	-bis	2cc,<\	-bis.
.	.	1c\	In	.	.	2ee-X\	In
00r	.	.	.	1r	.	1dd\	tu-
!	!	!LO:TX:t=P:problem:kreska pseudotaktowa	!	!	!	!	!
.	.	2Bn\	tu-	.	.	.	.
=38	=38	=38	=38	=38	=38	=38	=38
.	.	2c\	-a	2r	.	2cc\	-a
!	!	!	!	!	!	!LO:TX:t=P:problem:kreska pseudotaktowa	!
.	.	2B-X\	se	1g\	In	2g/	se
!	!	!LO:TX:t=P:problem:kreska pseudotaktowa	!	!	!	!	!
.	.	1A-X\	clau-	.	.	1cc\	clau-
!	!	!	!	!LO:TX:t=P:problem:kreska pseudotaktowa	!	!	!
.	.	.	.	2f\	tu-	.	.
=39	=39	=39	=39	=39	=39	=39	=39
.	.	2G,</	-sit	2g,\	-a	2bn\	.
.	.	2.E-X/	clau-	2g\	se	2.g\	.
00r	.	.	.	1e-X\	clau-	.	.
.	.	4F/	.	.	.	4a-X\	.
.	.	4G/	.	.	.	4b-X\	.
!	!	!LO:TX:t=P:problem:kreska pseudotaktowa	!	!	!	!LO:TX:t=P:problem:kreska pseudotaktowa	!
.	.	4E-/	.	.	.	4g\	.
!	!	!	!	!	!	!LO:LB:g=original	!
=40	=40	=40	=40	=40	=40	=40	=40
!LO:TX:b:i:t=Vertat	!	!	!	!	!	!	!
.	.	4F/	.	2d,\	-sit	4an/	.
.	.	4E/	.	.	.	4g/	.
.	.	4F/	.	2.f\	clau-	4a/	.
!	!	!LO:TX:t=P:problem:kreska pseudotaktowa	!	!	!	!LO:TX:t=P:problem:kreska pseudotaktowa	!
.	.	4G/	.	.	.	4b-/	.
.	.	2A-X/	.	.	.	1cc\	.
.	.	.	.	4d\	.	.	.
!	!	!LO:TX:t=P:problem:kreska pseudotaktowa	!	!	!	!	!
!	!	!LO:TX:a:t=P:problem:custos G	!	!	!	!	!
.	.	2F/	-sit	1f\	.	.	.
!LO:TX:a:t=P:problem:custos G	!	!	!	!	!	!	!
!	!	!LO:LB:g=original	!	!	!	!	!
=41	=41	=41	=41	=41	=41	=41	=41
.	.	1.G/	vis-	.	.	2bn/	-sit
!	!	!	!	!LO:TX:t=P:problem:kreska pseudotaktowa	!	!	!
.	.	.	.	2e-X,\	-sit	1cc\	Vis-
!LO:TX:b:B:t=Vertat	!	!	!	!	!	!	!
!LO:PB:g=original	!	!	!	!	!	!	!
2r	.	.	.	2.d\	Vis-	.	.
!LO:TX:t=P:problem:kreska pseudotaktowa	!	!	!	!	!	!LO:TX:t=P:problem:kreska pseudotaktowa	!
2G\	Quem	2G/	-ce-	.	.	2bn\	-ce-
!	!	!	!	!LO:TX:t=P:problem:kreska pseudotaktowa	!	!	!
.	.	.	.	4d\	-ce-	.	.
=42	=42	=42	=42	=42	=42	=42	=42
!	!	!LO:TX:t=P:problem:kreska pseudotaktowa	!	!	!	!	!
(2.E-X/	to-	1C/,<	-ra	2e-X,\	-ra	1cc\,	-ra
.	.	.	.	2g\	quem	.	.
!LO:TX:t=P:problem:kreska pseudotaktowa	!	!	!	!	!	!	!
4D/)	.	.	.	.	.	.	.
2C,</	-tus	2r	.	4e-X\	.	2cc\	quem
.	.	.	.	4d\	.	.	.
!LO:TX:t=P:problem:kreska pseudotaktowa	!	!LO:TX:t=P:problem:kreska pseudotaktowa	!	!LO:TX:t=P:problem:kreska pseudotaktowa	!	!LO:TX:t=P:problem:kreska pseudotaktowa	!
2F\	non	2F/	non	2c,</	tot(us)	2a\	.
=43	=43	=43	=43	=43	=43	=43	=43
2.D/	ca-	1B-\	ca-	2f\	quem	2f,/	totus
!	!	!	!	!LO:TX:t=P:problem:kreska pseudotaktowa	!	!	!
.	.	.	.	[<y2d\	tp-	2ff\	non
4C/	-pit	.	.	.	.	.	.
!	!	!	!	!LO:LB:g=original	!	!	!
!	!	!	!	!LO:N:xstem:cue	!	!	!
2BB-,</	.	2B-,\	-pit	4d\]	.	2.dd\	.
.	.	.	.	4c/	.	.	.
!LO:TX:t=P:problem:kreska pseudotaktowa	!	!LO:TX:t=P:problem:kreska pseudotaktowa	!	!LO:TX:t=P:problem:kreska pseudotaktowa	!	!	!
*	*	*	*ij	*	*	*	*
2B-\	Quem	2B-\	non	2B-/	-tus	.	.
!	!	!	!	!	!	!LO:TX:t=P:problem:kreska pseudotaktowa	!
.	.	.	.	.	.	4cc\	ca-
=44	=44	=44	=44	=44	=44	=44	=44
2.G\	to-	1e-X\	ca-	2b-\	quem	2.b-\	.
.	.	.	.	2.g\	to-	.	.
!	!	!	!	!	!	!LO:TX:t=P:problem:kreska pseudotaktowa	!
4F\	.	.	.	.	.	4a\	.
2E-X,<\	-tus	2e-,\	-pit	.	.	2g,/	-pit
*	*	*	*Xij	*	*	*	*
.	.	.	.	4f\	-tus	.	.
!LO:TX:t=P:problem:kreska pseudotaktowa	!	!LO:TX:t=P:problem:kreska pseudotaktowa	!	!	!	!LO:TX:t=P:problem:kreska pseudotaktowa	!
2E-\	non	2e-\	non	1e-X\	.	2b-\	non
=45	=45	=45	=45	=45	=45	=45	=45
2A-X\	ca-	(4c\	ca-	.	.	2cc\	ca-
.	.	4B-\	.	.	.	.	.
!	!	!LO:TX:t=P:problem:kreska pseudotaktowa	!	!LO:TX:t=P:problem:kreska pseudotaktowa	!	!LO:TX:t=P:problem:kreska pseudotaktowa	!
2F\	-pit	2A-X/)	-pit	2f\	non	2dd\	-pit
4E-X\	or-	1G/,	.	2.g\	ca-	4ee-X\	or-
4F\	.	.	.	.	.	4b-\	.
4G\	.	.	.	.	.	1ee-\	.
!LO:TX:t=P:problem:kreska pseudotaktowa	!	!	!	!	!	!	!
4A-\	.	.	.	4g\	-pit	.	.
=46	=46	=46	=46	=46	=46	=46	=46
2B-\	.	2r	.	1f\	or-	.	.
!LO:TX:t=P:problem:kreska pseudotaktowa	!	!LO:TX:t=P:problem:kreska pseudotaktowa	!	!	!	!LO:TX:t=P:problem:kreska pseudotaktowa	!
2BB-/	.	2B-\	quem	.	.	2dd\	.
!LO:LB:g=original	!	!	!	!	!	!LO:PB:g=original	!
!	!	!	!	!LO:TX:t=P:problem:kreska pseudotaktowa	!	!	!
2E-X\	-bis	1B-\	to-	1g\,<	-bis	2ee-X,<\	-bis
!	!	!	!	!	!	!LO:TX:t=P:problem:kreska pseudotaktowa	!
1E-\	.	.	.	.	.	2b-\	non
=47	=47	=47	=47	=47	=47	=47	=47
.	.	2G,/	-t(us)	2e-X\	non	2b-\	ca-
!LO:TX:t=P:problem:kreska pseudotaktowa	!	!	!	!	!	!	!
*	*	*lig	*	*	*	*	*
!	!	!	!	!	!	!LO:TX:t=P:problem:kreska pseudotaktowa	!
2E-y\	non	1G/	non	1e-\	ca-	2g,</	-pit
*	*	*	*	*	*	*	*ij
2C,/	ca-	.	.	.	.	2cc\	non
!	!	!	!	!LO:TX:t=P:problem:kreska pseudotaktowa	!	!	!
2F\	-pit	(1A\	.	2c,</	-pit	1cc\	ca-
*	*	*Xlig	*	*	*	*	*
=48	=48	=48	=48	=48	=48	=48	=48
!LO:TX:t=P:problem:kreska pseudotaktowa	!	!	!	!	!	!	!
*	*ij	*	*	*	*	*	*
1F\	ca-	.	.	[<2f\	or-	.	.
!	!	!LO:TX:t=P:problem:kreska pseudotaktowa	!	!	!	!LO:TX:t=P:problem:kreska pseudotaktowa	!
.	.	2c\)	ca-	1f\]	.	2a\	-pit
*	*	*	*	*	*	*	*Xij
2D,\	-pit	2B-/	-pit	.	.	2dd\	non
*	*Xij	*	*	*	*	*	*
!	!	!	!	!LO:TX:t=P:problem:kreska pseudotaktowa	!	!	!
2G\	non	2.B-/	or-	2d\	-bis	1dd\	ca-
=49	=49	=49	=49	=49	=49	=49	=49
2G\	ca-	.	.	2g,\	.	.	.
.	.	4A/	.	.	.	.	.
!	!	!LO:TX:t=P:problem:kreska pseudotaktowa	!	!	!	!	!
2C/	-pit	2G/	-bis	1g\	non	(4cc\	-pit
!	!	!LO:PB:g=original	!	!	!	!	!
!	!	!	!	!	!	!LO:TX:t=P:problem:kreska pseudotaktowa	!
.	.	.	.	.	.	4b-\)	.
1D\	or-	2r	.	.	.	1a\	or-
!	!	!	!	!LO:TX:t=P:problem:kreska pseudotaktowa	!	!	!
.	.	1d\	In	2f#X\	ca-	.	.
=50	=50	=50	=50	=50	=50	=50	=50
!LO:TX:t=P:problem:kreska pseudotaktowa	!	!	!	!	!	!	!
1GG/	-bis	.	.	2g\	-pit	2b-,\	-bis.
!	!	!LO:TX:t=P:problem:kreska pseudotaktowa	!	!	!	!	!
.	.	2B-\	tu-	2b-\	or-	1g\	In
1r	.	2c\	-a	1a\	-bis	.	.
!	!	!LO:TX:t=P:problem:kreska pseudotaktowa	!	!	!	!LO:TX:t=P:problem:kreska pseudotaktowa	!
.	.	2d\	se	.	.	2f#X/	tu-
=51	=51	=51	=51	=51	=51	=51	=51
!	!	!	!	!LO:TX:t=P:problem:kreska pseudotaktowa	!	!	!
2r	.	1G/	clau-	1g\	.	2g,<\	-a
1G\	In	.	.	.	.	2b-\	se
!	!	!	!	!LO:PB:g=original	!	!	!
!	!	!LO:TX:t=P:problem:kreska pseudotaktowa	!	!	!	!LO:TX:t=P:problem:kreska pseudotaktowa	!
.	.	1A\,<	-sit	1r	.	1a\	clau-
!LO:TX:t=P:problem:kreska pseudotaktowa	!	!	!	!	!	!	!
2F#X\	Tu-	.	.	.	.	.	.
=52	=52	=52	=52	=52	=52	=52	=52
2G\	-a	2B-\	Vis-	2r	.	2g,</	-sit
2Fn\	se-	2A/	-ce-	1d\	In	2dd\	clau-
!	!	!LO:TX:t=P:problem:kreska pseudotaktowa	!	!	!	!	!
1E-X\	-clau-	1G/	-ra	.	.	(2g\	.
!	!	!	!	!LO:TX:t=P:problem:kreska pseudotaktowa	!	!LO:TX:t=P:problem:kreska pseudotaktowa	!
.	.	.	.	2c\	tu-	2cc\)	.
!	!	!	!	!	!	!LO:LB:g=original	!
=53	=53	=53	=53	=53	=53	=53	=53
2D,/	.	2.d\	clau-	2d,<\	-a	2a,<\	-sit
!LO:TX:t=P:problem:kreska pseudotaktowa	!	!	!	!	!	!	!
[<2BB-/	-sit	.	.	2.f\	se	2.dd\	Vi-
.	.	4c\	.	.	.	.	.
!LO:N:xstem:cue	!	!	!	!	!	!	!
4BB-/]	.	2.B-\	.	.	.	.	.
4C/	clau-	.	.	4e-X\	clau-	4cc\	.
!	!	!	!	!LO:TX:t=P:problem:kreska pseudotaktowa	!	!LO:TX:t=P:problem:kreska pseudotaktowa	!
4D/	.	.	.	2d\	.	2b-\	.
!LO:TX:t=P:problem:kreska pseudotaktowa	!	!LO:TX:t=P:problem:kreska pseudotaktowa	!	!	!	!	!
!LO:TX:a:t=P:problem:custos C	!	!	!	!	!	!	!
4BB-/	.	4F/	.	.	.	.	.
!LO:LB:g=original	!	!	!	!	!	!	!
=54	=54	=54	=54	=54	=54	=54	=54
2C,/	-sit	2.c\	-sit	4e-X\	-sit	2a\	.
.	.	.	.	4e-,\	.	.	.
1D\	vis-	.	.	1d\	vis-	1g\	.
!	!	!LO:TX:t=P:problem:kreska pseudotaktowa	!	!	!	!	!
.	.	4c\	.	.	.	.	.
.	.	2.A/	vis-	.	.	.	.
!LO:TX:t=P:problem:kreska pseudotaktowa	!	!	!	!LO:TX:t=P:problem:kreska pseudotaktowa	!	!LO:TX:t=P:problem:kreska pseudotaktowa	!
2D\	-ce-	.	.	2d\	-ce-	2f#X/	-sce-
.	.	4A/	-ce-	.	.	.	.
=55	=55	=55	=55	=55	=55	=55	=55
2GG,/	-ra	2G,</	-ra	2d,<\	-ra	2g,</	-ra
!LO:TX:t=P:problem:kreska pseudotaktowa	!	!LO:TX:t=P:problem:kreska pseudotaktowa	!	!	!	!	!
(2G\	Fa-	2d\	Fa-	1g\	Fa-	(2b-\	Fa-
2A\)	.	2c#X\	-cuts	.	.	2a\)	-ctus
!	!	!LO:TX:t=P:problem:kreska pseudotaktowa	!	!LO:TX:t=P:problem:kreska pseudotaktowa	!	!LO:TX:t=P:problem:kreska pseudotaktowa	!
!	!	!LO:TX:a:t=P:problem:custos c#	!	!	!	!	!
2D,/	-ctus	2d\	.	2fn\	.	2a\	.
!	!	!LO:LB:g=original	!	!	!	!	!
=56	=56	=56	=56	=56	=56	=56	=56
*lig	*	*	*	*	*	*	*
1A\	Ho-	2c#X\	Ho-	2en\	-cuts	0a\	Ho-
!	!	!	!	!LO:TX:t=P:problem:kreska pseudotaktowa	!	!	!
.	.	1d\	.	2f\	.	.	.
1AA/	.	.	.	1e\	Ho-	.	.
.	.	2c#X\	.	.	.	.	.
*Xlig	*	*	*	*	*	*	*
=57	=57	=57	=57	=57	=57	=57	=57
00D\;	-mo.	00d\;	-mo.	00f#X\	-mo	00a\;	-mo.
!	!	!	!	!LO:LB:g=original	!	!	!
=58||	=58||	=58||	=58||	=58||	=58||	=58||	=58||
*M2/1	*	*M2/1	*	*M2/1	*	*M2/1	*
*met(C|)	*	*met(C|)	*	*met(C|)	*	*met(C|)	*
!	!	!	!	!LO:TX:t=P:problem:kreska pseudotaktowa	!	!LO:TX:t=P:problem:kreska pseudotaktowa	!
00r	.	1G/	Be-	1r	.	0r	.
.	.	2.B-\	-ne-	2r	.	.	.
.	.	.	.	1g\	Be-	.	.
!	!	!LO:TX:t=P:problem:kreska pseudotaktowa	!	!	!	!	!
.	.	4c\	.	.	.	.	.
=59	=59	=59	=59	=59	=59	=59	=59
.	.	2.d\	-di-	.	.	2r	.
!	!	!	!	!LO:TX:t=P:problem:kreska pseudotaktowa	!	!	!
.	.	.	.	2f#X\	-ne-	1dd\	Be-
.	.	4c\	.	.	.	.	.
.	.	2B-\	-cta	2g\	-di-	.	.
!	!	!LO:TX:t=P:problem:kreska pseudotaktowa	!	!LO:TX:t=P:problem:kreska pseudotaktowa	!	!	!
.	.	2A\	.	2a\	.	2ccn\	-ne-
=60	=60	=60	=60	=60	=60	=60	=60
2r	.	2G,</	Tu	2b-\	.	2dd\	-di-
!LO:TX:t=P:problem:kreska pseudotaktowa	!	!LO:TX:t=P:problem:kreska pseudotaktowa	!	!	!	!LO:TX:t=P:problem:kreska pseudotaktowa	!
2D\	Be-	2d\	Be-	1a\	.	2dd\	-cta
(2.Fn\	-ne-	2d\	-ne-	.	.	1r	.
!	!	!LO:TX:t=P:problem:kreska pseudotaktowa	!	!	!	!	!
.	.	2d\	-di-	4g\	.	.	.
!	!	!	!	!LO:TX:t=P:problem:kreska pseudotaktowa	!	!	!
4G\)	-di-	.	.	4f\	.	.	.
!	!	!	!	!	!	!LO:LB:g=original	!
=61	=61	=61	=61	=61	=61	=61	=61
2.A\	.	2d\	-cta	2e\	.	2r	.
!	!	!LO:TX:t=P:problem:kreska pseudotaktowa	!	!	!	!	!
.	.	2c\	Tu	2e\	-cta	1a\	B-
!LO:TX:t=P:problem:kreska pseudotaktowa	!	!	!	!	!	!	!
4G\	.	.	.	.	.	.	.
2F\	.	2d,\	.	2fn\	Tu	.	.
!LO:TX:t=P:problem:kreska pseudotaktowa	!	!LO:TX:t=P:problem:kreska pseudotaktowa	!	!LO:TX:t=P:problem:kreska pseudotaktowa	!	!LO:TX:t=P:problem:kreska pseudotaktowa	!
2E\	-cta	2G/	in	2r	.	2g/	-ne-
=62	=62	=62	=62	=62	=62	=62	=62
2D,</	.	(2.d\	mu-	2r	.	2a\	-di-
!	!	!	!	!LO:TX:t=P:problem:kreska pseudotaktowa	!	!LO:TX:t=P:problem:kreska pseudotaktowa	!
1G\	in	.	.	2d\	in	2g\	-cta
!	!	!LO:TX:t=P:problem:kreska pseudotaktowa	!	!	!	!	!
.	.	4c\)	.	.	.	.	.
!	!	!LO:LB:g=original	!	!	!	!	!
.	.	2.B-\	.	2.g\	mu-	2.b-X\	Tu
!LO:TX:t=P:problem:kreska pseudotaktowa	!	!	!	!	!	!	!
[<2G\	mu-	.	.	.	.	.	.
!	!	!	!	!LO:TX:t=P:problem:kreska pseudotaktowa	!	!LO:TX:t=P:problem:kreska pseudotaktowa	!
.	.	4A\	-li-	4a\	-li-	4cc\	.
=63	=63	=63	=63	=63	=63	=63	=63
2G\]	.	2G/	-e-	2b-\	-e	2.dd\	in
!LO:TX:t=P:problem:kreska pseudotaktowa	!	!LO:TX:t=P:problem:kreska pseudotaktowa	!	!LO:TX:t=P:problem:kreska pseudotaktowa	!	!	!
2F#X\	.	2A\	.	2a\	.	.	.
!	!	!	!	!	!	!LO:TX:t=P:problem:kreska pseudotaktowa	!
.	.	.	.	.	.	4cc\	.
!LO:LB:g=original	!	!	!	!	!	!	!
2G\	.	4B-\	.	2g\	.	2b-\	mu-
.	.	4c\	.	.	.	.	.
!	!	!	!	!LO:TX:t=P:problem:kreska pseudotaktowa	!	!	!
!	!	!	!	!LO:TX:a:t=P:problem:custos g	!	!	!
2Fn\	-li-	1d\	.	2d/	.	2a\	-li-
!	!	!	!	!LO:LB:g=original	!	!	!
=64	=64	=64	=64	=64	=64	=64	=64
2.E-X\	-er-	.	.	2.g\	.	2g\	-e-
!	!	!LO:TX:t=P:problem:kreska pseudotaktowa	!	!	!	!LO:TX:t=P:problem:kreska pseudotaktowa	!
.	.	2c\	-ri-	.	.	2cc\	-ri-
!LO:TX:t=P:problem:kreska pseudotaktowa	!	!	!	!	!	!	!
4E-\	-i-	.	.	4g\	ri-	.	.
!LO:TX:t=P:problem:kreska pseudotaktowa	!	!	!	!	!	!	!
1D\	-bus	2d,<\	-bus	2f#X,\	-bus	2a,<\	-bus
!	!	!LO:TX:t=P:problem:kreska pseudotaktowa	!	!LO:TX:t=P:problem:kreska pseudotaktowa	!	!LO:TX:t=P:problem:kreska pseudotaktowa	!
.	.	2G/	et	2g\	et	2b-\	et
=65	=65	=65	=65	=65	=65	=65	=65
!LO:TX:t=P:problem:kreska pseudotaktowa	!	!	!	!	!	!	!
1r	.	2c\	be-	2g\	be-	2cc\	be-
!	!	!LO:TX:t=P:problem:kreska pseudotaktowa	!	!LO:TX:t=P:problem:kreska pseudotaktowa	!	!LO:TX:t=P:problem:kreska pseudotaktowa	!
.	.	2A/	-ne-	2f#X\	-ne-	2cc\	-ne-
1G\	et	2G/	-di-	2g\	-di-	2b-\	-di-
!	!	!	!	!LO:TX:t=P:problem:kreska pseudotaktowa	!	!LO:TX:t=P:problem:kreska pseudotaktowa	!
.	.	1d\	.	2g\	-ctus	2b-\	-cuts
=66	=66	=66	=66	=66	=66	=66	=66
!	!	!	!	!LO:TX:t=P:problem:kreska pseudotaktowa	!	!LO:TX:t=P:problem:kreska pseudotaktowa	!
2F#X\	be-	.	.	1r	.	[<1dd\	Fru-
!LO:TX:t=P:problem:kreska pseudotaktowa	!	!	!	!	!	!	!
2G\	-ne-	1B-\	-ctus	.	.	.	.
2G\	-di-	.	.	2g\	Fru-	2dd\]	.
!LO:TX:t=P:problem:kreska pseudotaktowa	!	!	!	!LO:TX:t=P:problem:kreska pseudotaktowa	!	!LO:TX:t=P:problem:kreska pseudotaktowa	!
[<2E-X\	-ctus	1c\	.	[<2g\	-ctus	[<2cc\	-cuts
=67	=67	=67	=67	=67	=67	=67	=67
2E-\]	.	.	.	2g,\]	.	2cc\]	.
!LO:TX:t=P:problem:kreska pseudotaktowa	!	!	!	!LO:TX:t=P:problem:kreska pseudotaktowa	!	!LO:TX:t=P:problem:kreska pseudotaktowa	!
!	!	!	!	!	!	!LO:TX:a:t=P:problem:custos cc	!
[<2F\	Fru-	1A\	Fru-	[<2f\	Ven-	[<2cc\	Ven-
!	!	!	!	!	!	!LO:LB:g=original	!
2F\]	.	.	.	2f\]	.	2cc\]	.
!LO:TX:t=P:problem:kreska pseudotaktowa	!	!	!	!LO:TX:t=P:problem:kreska pseudotaktowa	!	!LO:TX:t=P:problem:kreska pseudotaktowa	!
[<2D/	-ctus	1B-\	-ct(us)	[<2f\	-tris	[<2b-\	-tris
=68	=68	=68	=68	=68	=68	=68	=68
2D\]	.	.	.	2f,\]	.	2b-\]	.
!	!	!	!	!LO:TX:t=P:problem:kreska pseudotaktowa	!	!LO:TX:t=P:problem:kreska pseudotaktowa	!
1E-X\	Ven-	1G/	Ven-	[<2e-X\	Fru-	2b-\	Ven-
.	.	.	.	2e-\]	.	2b-\	.
!LO:TX:t=P:problem:kreska pseudotaktowa	!	!	!	!LO:TX:t=P:problem:kreska pseudotaktowa	!	!	!
!	!	!	!	!LO:TX:a:t=P:problem:custos d	!	!	!
2C/	-tris	1A\	-tris	2e-\	-ctus	4a/	-tris
.	.	.	.	.	.	4g/	.
!	!	!	!	!LO:LB:g=original	!	!	!
=69	=69	=69	=69	=69	=69	=69	=69
0D\	Tu-	.	.	(4d/	Ven-	2f#X/	.
.	.	.	.	4c/)	.	.	.
.	.	2B-X\	.	(4B-/	-tris	1g\	Tu-
!	!	!	!	!LO:TX:t=P:problem:kreska pseudotaktowa	!	!	!
.	.	.	.	4c/)	.	.	.
!	!	!	!	!LO:TX:t=P:problem:kreska pseudotaktowa	!	!	!
.	.	1A\	Tu-	1d\	Tui.	.	.
!	!	!	!	!	!	!LO:TX:t=P:problem:kreska pseudotaktowa	!
.	.	.	.	.	.	2f#X/	.
=70	=70	=70	=70	=70	=70	=70	=70
2GG,/	-i.	2Bn,<\	-i	2d,\	.	2g,<\	-i.
!LO:TX:t=P:problem:kreska pseudotaktowa	!	!LO:TX:t=P:problem:kreska pseudotaktowa	!	!LO:TX:t=P:problem:kreska pseudotaktowa	!	!LO:TX:t=P:problem:kreska pseudotaktowa	!
!LO:TX:a:t=P:problem:custos E-	!	!	!	!	!	!	!
2G\	Quem	2G/	Quem	2d\	Quem	2bn\	Quem
!LO:LB:g=original	!	!LO:LB:g=original	!	!	!	!	!
(2.E-X\	to-	2c\	to-	2e-X\	to-	1cc\	to-
!	!	!LO:TX:t=P:problem:kreska pseudotaktowa	!	!LO:TX:t=P:problem:kreska pseudotaktowa	!	!	!
.	.	2C/	-tus	2g\	.	.	.
4D\)	.	.	.	.	.	.	.
=71	=71	=71	=71	=71	=71	=71	=71
2C,</	-tus	2r	.	4e-X\	.	2cc,\	-tus
.	.	.	.	4d\	.	.	.
!LO:TX:t=P:problem:kreska pseudotaktowa	!	!	!	!LO:TX:t=P:problem:kreska pseudotaktowa	!	!LO:TX:t=P:problem:kreska pseudotaktowa	!
2F\	non	2F/	non	2c,</	-tus	2a\	non
(2.D/	ca-	1B-\	ca-	2f\	quem	2f/	ca-
!	!	!	!	!	!	!LO:TX:t=P:problem:kreska pseudotaktowa	!
.	.	.	.	2.d\	.	2ff\	.
!LO:TX:t=P:problem:kreska pseudotaktowa	!	!	!	!	!	!	!
4C/)	.	.	.	.	.	.	.
=72	=72	=72	=72	=72	=72	=72	=72
2BB-,</	-pit,	2B-,\	-pit	.	.	2.dd\	.
.	.	.	.	4c/	to-	.	.
!	!	!LO:TX:t=P:problem:kreska pseudotaktowa	!	!LO:TX:t=P:problem:kreska pseudotaktowa	!	!	!
*	*	*	*ij	*	*	*	*
2B-\	quem	2B-\	non	2B-,</	-t(us)	.	.
.	.	.	.	.	.	4cc\	.
*	*	*	*	*	*ij	*	*
(2.G\	to-	1e-X\	ca-	2b-\	quen	2.b-\	-pit
.	.	.	.	2g.\	.	.	.
!LO:TX:t=P:problem:kreska pseudotaktowa	!	!	!	!	!	!LO:TX:t=P:problem:kreska pseudotaktowa	!
4F\)	.	.	.	.	.	4a\	.
=73	=73	=73	=73	=73	=73	=73	=73
2E-X,<\	-tus	2e-X,\	-pit	.	.	2g/	non
*	*	*	*Xij	*	*	*	*
.	.	.	.	4f\	to-	.	.
!LO:TX:t=P:problem:kreska pseudotaktowa	!	!LO:TX:t=P:problem:kreska pseudotaktowa	!	!	!	!LO:TX:t=P:problem:kreska pseudotaktowa	!
2E-\	non	2e-\	quem	1e-X\,<	-t(us)	2b-\	ca-
*	*	*	*	*	*Xij	*	*
!	!	!	!	!	!	!LO:LB:g=original	!
2A-X\	ca-	4c\	.	.	.	2cc\	.
.	.	4B-\	.	.	.	.	.
!	!	!	!	!LO:TX:t=P:problem:kreska pseudotaktowa	!	!	!
2F\	-pit	2A-X/	to-	2f\	non	2dd\	-pit
=74	=74	=74	=74	=74	=74	=74	=74
!	!	!LO:TX:t=P:problem:kreska pseudotaktowa	!	!	!	!	!
4E-X\	or-	1G/	-tus	2g\	ca-	4ee-X\	Or-
4F\	.	.	.	.	.	4b-\	.
4G\	.	.	.	2g\	-pit	1ee-\	.
!LO:TX:t=P:problem:kreska pseudotaktowa	!	!	!	!	!	!	!
4A-X\	.	.	.	.	.	.	.
!	!	!	!	!LO:TX:t=P:problem:kreska pseudotaktowa	!	!	!
2B-\	.	2r	.	1f\	or-	.	.
!LO:TX:t=P:problem:kreska pseudotaktowa	!	!LO:TX:t=P:problem:kreska pseudotaktowa	!	!	!	!LO:TX:t=P:problem:kreska pseudotaktowa	!
2BB-/	.	2B-\	non	.	.	2dd\	.
!	!	!	!	!LO:LB:g=original	!	!	!
=75	=75	=75	=75	=75	=75	=75	=75
!	!	!LO:TX:t=P:problem:kreska pseudotaktowa	!	!LO:TX:t=P:problem:kreska pseudotaktowa	!	!	!
2E-X,<\	-bis	1B-\	ca-	1g\,	-bis	2ee-X,\	-bis
1E-\	non	.	.	.	.	2b-\	non
.	.	2G,</	-pit	2e-X\	non	2b-\	ca-
*	*	*lig	*	*	*	*	*
!	!	!	!	!	!	!LO:TX:t=P:problem:kreska pseudotaktowa	!
2E-\	ca-	1G/	or-	1e-\	ca-	2g\	-pit
=76	=76	=76	=76	=76	=76	=76	=76
*	*	*	*	*	*	*	*ij
2C,</	-pit	.	.	.	.	2cc\	non
!	!	!	!	!LO:TX:t=P:problem:kreska pseudotaktowa	!	!	!
*	*ij	*	*	*	*	*	*
2F\	non	1A\	.	2c/	-pit	1cc\	ca-
*	*	*	*	*	*ij	*	*
1F\	ca-	.	.	[<2f\	non-	.	.
!LO:TX:t=P:problem:kreska pseudotaktowa	!	!	!	!	!	!	!
*	*	*Xlig	*	*	*	*	*
!	!	!LO:TX:t=P:problem:kreska pseudotaktowa	!	!	!	!LO:TX:t=P:problem:kreska pseudotaktowa	!
.	.	2c\	.	1f\]	-ca-	2a\	-pit
*	*	*	*	*	*	*	*Xij
=77	=77	=77	=77	=77	=77	=77	=77
2D,\	-pit	2B-,\	-bis	.	.	2dd\	non
*	*Xij	*	*	*	*	*	*
!	!	!LO:LB:g=original	!	!	!	!	!
!LO:TX:t=P:problem:kreska pseudotaktowa	!	!	!	!LO:TX:t=P:problem:kreska pseudotaktowa	!	!	!
2G\	non	(2.B-\	or-	2d\	-pit	1dd\	ca-
*	*	*	*	*	*Xij	*	*
!LO:LB:g=original	!	!	!	!	!	!	!
2G\	ca-	.	.	2g\	non	.	.
.	.	4A/)	.	.	.	.	.
!	!	!LO:TX:t=P:problem:kreska pseudotaktowa	!	!	!	!	!
2C/	-pit	2G/	-bis	1g\	.	4cc\	-pit
!	!	!	!	!	!	!LO:TX:t=P:problem:kreska pseudotaktowa	!
.	.	.	.	.	.	4b-\	.
=78	=78	=78	=78	=78	=78	=78	=78
1D\	or-	2r	.	.	.	1a\	or-
!	!	!	!	!LO:TX:t=P:problem:kreska pseudotaktowa	!	!	!
.	.	1d\	In	2f#X\	ca-	.	.
!LO:TX:t=P:problem:kreska pseudotaktowa	!	!	!	!	!	!	!
1GG/	-bis.	.	.	2g\	-pit	2b-,\	-bis
!	!	!LO:TX:t=P:problem:kreska pseudotaktowa	!	!LO:TX:t=P:problem:kreska pseudotaktowa	!	!	!
.	.	2B-\	tu-	2b-\	.	1g\	.
=79	=79	=79	=79	=79	=79	=79	=79
1r	.	2c\	-a	1a\	or-	.	.
!	!	!LO:TX:t=P:problem:kreska pseudotaktowa	!	!	!	!LO:TX:t=P:problem:kreska pseudotaktowa	!
.	.	2d\	se	.	.	2f#X/	In
!	!	!	!	!LO:TX:t=P:problem:kreska pseudotaktowa	!	!	!
2r	.	1G/	clau-	1g\	-bis	2g,\	tua
1G\	In	.	.	.	.	2b-\	se
=80	=80	=80	=80	=80	=80	=80	=80
!	!	!LO:TX:t=P:problem:kreska pseudotaktowa	!	!LO:TX:t=P:problem:kreska pseudotaktowa	!	!	!
.	.	1A\	-sit	1r	.	1a\	clau-
!LO:TX:t=P:problem:kreska pseudotaktowa	!	!	!	!	!	!	!
2F#X\	Tu-	.	.	.	.	.	.
2G,<\	-a	2B-\	vis-	2r	.	2g,</	-sit
!	!	!	!	!	!	!LO:TX:t=P:problem:kreska pseudotaktowa	!
2Fn\	se	2A/	-ce-	1d\	In	2dd\	clau-
!	!	!	!	!	!	!LO:LB:g=original	!
=81	=81	=81	=81	=81	=81	=81	=81
!	!	!LO:TX:t=P:problem:kreska pseudotaktowa	!	!	!	!	!
1E-X\	clau-	1G/,<	-ra	.	.	(<2g/	.
!	!	!	!	!LO:TX:t=P:problem:kreska pseudotaktowa	!	!LO:TX:t=P:problem:kreska pseudotaktowa	!
.	.	.	.	2c\	tu-	2cc\)	.
2D/	.	2.d\	clau-	2d,\	-a	2a\	-sit
2.BB-/	.	.	.	2.f\	se	2.dd\	Vis-
.	.	4c\	.	.	.	.	.
=82	=82	=82	=82	=82	=82	=82	=82
.	.	2.B-\	.	.	.	.	.
4C/	.	.	.	4e-X\	clau-	4cc\	-ce-
!	!	!	!	!LO:TX:t=P:problem:kreska pseudotaktowa	!	!LO:TX:t=P:problem:kreska pseudotaktowa	!
4D/	.	.	.	2d\	.	2b-\	-ra
!LO:TX:t=P:problem:kreska pseudotaktowa	!	!LO:TX:t=P:problem:kreska pseudotaktowa	!	!	!	!	!
4BB-/	.	4F/	.	.	.	.	.
!	!	!	!	!LO:LB:g=original	!	!	!
2C,</	-sit	2c\	-sit	4e-X/	-sit	2a/	.
.	.	.	.	4e-/	.	.	.
1D\	vis-	2c\	.	1d\	Vis-	1g\	Fa-
=83	=83	=83	=83	=83	=83	=83	=83
.	.	2.A/	vis-	.	-ce-	.	.
!LO:TX:t=P:problem:kreska pseudotaktowa	!	!	!	!LO:TX:t=P:problem:kreska pseudotaktowa	!	!LO:TX:t=P:problem:kreska pseudotaktowa	!
2D\	-ce-	.	.	2d/	.	2f#X/	.
!	!	!LO:TX:t=P:problem:kreska pseudotaktowa	!	!	!	!	!
.	.	4A/	-ce-	.	.	.	.
!	!	!LO:TX:a:t=P:problem:custos Bn	!	!	!	!	!
2GG/	-ra	2G,/	-ra	2d,/	-ra	2g,/	-ctus
!	!	!LO:LB:g=original	!	!	!	!	!
*	*	*	*	*	*	*	*ij
1G\	Fa-	1Bn\	Fa-	1d\	Fa-	1g\	Fa-
=84	=84	=84	=84	=84	=84	=84	=84
!LO:TX:t=P:problem:kreska pseudotaktowa	!	!LO:TX:t=P:problem:kreska pseudotaktowa	!	!LO:TX:t=P:problem:kreska pseudotaktowa	!	!LO:TX:t=P:problem:kreska pseudotaktowa	!
2GG/	-ct(us)	2Bny\	-ctus	2d/	-cuts	2g/	-ctus
*	*	*	*	*	*	*	*Xij
0C/	Ho-	0c\	Ho-	0e-X\	Ho-	0g\	Ho-
=85	=85	=85	=85	=85	=85	=85	=85
00GG/;	-mo.	00Bn\;	-mo.	00d\;	-mo	00g\;	-mo.
==	==	==	==	==	==	==	==
*-	*-	*-	*-	*-	*-	*-	*-
!!!system-decoration: [(s1,s2,s3,s4)]
!!!RDF**kern: > = above
!!!RDF**kern: < = below
!!!EED: Leszek Kubiak
!!!EST: 2021-03-02
!!!AIN: 1 alto 1 bass 1 soprn 1 tenor
!!!ENC: Anastazja Marusiak
!!!END: 2021-03-02
